; My RepetierHost Startcode
;G80 ;Power On
;M117 Start
;g42 P65 S0 ; Licht an
;G28 ;Home
;G29; Level
;G1 X0 Y0 Z5
; Starcode End




; generated by Slic3r 1.2.9 on 2016-01-25 at 21:20:53

; external perimeters extrusion width = 0.40mm
; perimeters extrusion width = 0.40mm
; infill extrusion width = 0.40mm
; solid infill extrusion width = 0.40mm
; top infill extrusion width = 0.40mm

M111 S9
M107
M190 S120 ; set bed temperature
M104 S225 ; set temperature
G28
G29 V4
;G29 V4
;G29 V4
;G29 V4
G1 Z5 F240 ; lift nozzle

M109 S225 ; wait for temperature to be reached
G21 ; set units to millimeters
G90 ; use absolute coordinates
M82 ; use absolute distances for extrusion
G92 E0
G1 E-1.50000 F1800.00000
G92 E0
G1 Z0.400 F6000.000
; Layerchange
G1 X77.886 Y77.269 F6000.000
G1 E1.50000 F1800.00000
G1 X78.867 Y76.354 E1.65930 F1080.000
G1 X79.525 Y75.782 E1.76294
G1 X80.383 Y75.082 E1.89440
G1 X81.454 Y74.275 E2.05371
G1 X82.363 Y73.643 E2.18511
G1 X83.095 Y73.168 E2.28875
G1 X84.245 Y72.477 E2.44805
G1 X85.215 Y71.944 E2.57953
G1 X85.992 Y71.548 E2.68317
G1 X86.995 Y71.076 E2.81475
G1 X88.229 Y70.552 E2.97398
G1 X89.264 Y70.159 E3.10543
G1 X90.089 Y69.875 E3.20907
G1 X91.371 Y69.483 E3.36831
G1 X92.442 Y69.201 E3.49983
G1 X93.292 Y69.004 E3.60347
G1 X94.378 Y68.789 E3.73493
G1 X95.703 Y68.579 E3.89427
G1 X96.569 Y68.473 E3.99791
G1 X97.671 Y68.372 E4.12929
G1 X98.776 Y68.310 E4.26077
G1 X100.117 Y68.287 E4.42006
G1 X101.224 Y68.310 E4.55159
G1 X102.329 Y68.372 E4.68307
G1 X103.199 Y68.448 E4.78671
G1 X104.530 Y68.612 E4.94595
G1 X105.391 Y68.748 E5.04959
G1 X106.479 Y68.956 E5.18106
G1 X107.786 Y69.257 E5.34040
G1 X108.629 Y69.483 E5.44404
G1 X109.688 Y69.803 E5.57544
G1 X110.956 Y70.239 E5.73474
G1 X111.989 Y70.640 E5.86626
G1 X112.792 Y70.981 E5.96990
G1 X113.796 Y71.445 E6.10125
G1 X114.785 Y71.944 E6.23283
G1 X115.958 Y72.594 E6.39205
G1 X116.706 Y73.043 E6.49569
G1 X117.637 Y73.643 E6.62725
G1 X118.735 Y74.412 E6.78645
G1 X119.432 Y74.937 E6.89009
G1 X120.295 Y75.631 E7.02160
G1 X121.307 Y76.511 E7.18088
G1 X121.945 Y77.106 E7.28451
G1 X122.731 Y77.886 E7.41599
G1 X123.646 Y78.867 E7.57529
G1 X124.369 Y79.705 E7.70675
G1 X124.918 Y80.383 E7.81039
G1 X125.725 Y81.454 E7.96970
G1 X126.226 Y82.169 E8.07334
G1 X126.832 Y83.095 E8.20473
G1 X127.523 Y84.245 E8.36404
G1 X128.056 Y85.215 E8.49551
G1 X128.452 Y85.992 E8.59915
G1 X128.924 Y86.995 E8.73074
G1 X129.448 Y88.229 E8.88997
G1 X129.761 Y89.044 E8.99361
G1 X130.125 Y90.089 E9.12506
G1 X130.517 Y91.371 E9.28430
G1 X130.799 Y92.442 E9.41582
G1 X130.996 Y93.292 E9.51946
G1 X131.211 Y94.378 E9.65092
G1 X131.421 Y95.703 E9.81026
G1 X131.527 Y96.569 E9.91389
G1 X131.628 Y97.671 E10.04528
G1 X131.690 Y98.776 E10.17676
G1 X131.713 Y100.117 E10.33605
G1 X131.690 Y101.224 E10.46758
G1 X131.644 Y102.096 E10.57121
G1 X131.552 Y103.199 E10.70270
G1 X131.388 Y104.530 E10.86194
G1 X131.252 Y105.391 E10.96558
G1 X131.044 Y106.479 E11.09705
G1 X130.743 Y107.786 E11.25639
G1 X130.517 Y108.629 E11.36003
G1 X130.197 Y109.688 E11.49143
G1 X129.761 Y110.956 E11.65072
G1 X129.360 Y111.989 E11.78225
G1 X129.019 Y112.792 E11.88589
G1 X128.555 Y113.796 E12.01723
G1 X128.056 Y114.785 E12.14883
G1 X127.406 Y115.958 E12.30804
G1 X126.957 Y116.706 E12.41168
G1 X126.357 Y117.637 E12.54324
G1 X125.588 Y118.735 E12.70244
G1 X124.918 Y119.617 E12.83394
G1 X124.369 Y120.295 E12.93759
G1 X123.489 Y121.307 E13.09686
G1 X122.894 Y121.945 E13.20051
G1 X122.114 Y122.731 E13.33198
G1 X121.133 Y123.646 E13.49128
G1 X120.475 Y124.218 E13.59492
G1 X119.617 Y124.918 E13.72638
G1 X118.546 Y125.725 E13.88569
G1 X117.637 Y126.357 E14.01709
G1 X116.905 Y126.832 E14.12073
G1 X115.755 Y127.523 E14.28003
G1 X114.785 Y128.056 E14.41150
G1 X114.008 Y128.452 E14.51514
G1 X113.005 Y128.924 E14.64673
G1 X111.771 Y129.448 E14.80596
G1 X110.956 Y129.761 E14.90960
G1 X109.911 Y130.125 E15.04105
G1 X108.629 Y130.517 E15.20029
G1 X107.558 Y130.799 E15.33181
G1 X106.708 Y130.996 E15.43544
G1 X105.622 Y131.211 E15.56691
G1 X104.297 Y131.421 E15.72624
G1 X103.431 Y131.527 E15.82989
G1 X102.329 Y131.628 E15.96126
G1 X101.224 Y131.690 E16.09275
G1 X99.883 Y131.713 E16.25204
G1 X98.776 Y131.690 E16.38356
G1 X97.904 Y131.644 E16.48721
G1 X96.801 Y131.552 E16.61869
G1 X95.470 Y131.388 E16.77793
G1 X94.608 Y131.252 E16.88157
G1 X93.521 Y131.044 E17.01304
G1 X92.214 Y130.743 E17.17238
G1 X91.371 Y130.517 E17.27602
G1 X90.312 Y130.197 E17.40742
G1 X89.044 Y129.761 E17.56672
G1 X88.011 Y129.360 E17.69824
G1 X86.995 Y128.924 E17.82958
G1 X86.204 Y128.555 E17.93322
G1 X85.215 Y128.056 E18.06481
G1 X84.042 Y127.406 E18.22403
G1 X83.294 Y126.957 E18.32767
G1 X82.363 Y126.357 E18.45923
G1 X81.265 Y125.588 E18.61843
G1 X80.568 Y125.063 E18.72206
G1 X79.705 Y124.369 E18.85358
G1 X78.693 Y123.489 E19.01285
G1 X78.055 Y122.894 E19.11649
G1 X77.269 Y122.114 E19.24797
G1 X76.354 Y121.133 E19.40727
G1 X75.782 Y120.475 E19.51091
G1 X75.082 Y119.617 E19.64237
G1 X74.275 Y118.546 E19.80168
G1 X73.774 Y117.831 E19.90531
G1 X73.168 Y116.905 E20.03671
G1 X72.477 Y115.755 E20.19602
G1 X72.054 Y114.992 E20.29966
G1 X71.548 Y114.008 E20.43113
G1 X71.076 Y113.005 E20.56272
G1 X70.552 Y111.771 E20.72195
G1 X70.239 Y110.956 E20.82558
G1 X69.875 Y109.911 E20.95704
G1 X69.483 Y108.629 E21.11628
G1 X69.201 Y107.558 E21.24779
G1 X69.004 Y106.708 E21.35143
G1 X68.789 Y105.622 E21.48290
G1 X68.579 Y104.297 E21.64223
G1 X68.473 Y103.431 E21.74587
G1 X68.372 Y102.329 E21.87725
G1 X68.310 Y101.224 E22.00874
G1 X68.287 Y99.883 E22.16803
G1 X68.310 Y98.776 E22.29956
G1 X68.356 Y97.904 E22.40319
G1 X68.448 Y96.801 E22.53468
G1 X68.612 Y95.470 E22.69392
G1 X68.748 Y94.609 E22.79755
G1 X68.955 Y93.521 E22.92903
G1 X69.257 Y92.214 E23.08837
G1 X69.548 Y91.146 E23.21977
G1 X69.803 Y90.312 E23.32341
G1 X70.239 Y89.043 E23.48271
G1 X70.640 Y88.011 E23.61423
G1 X70.981 Y87.208 E23.71787
G1 X71.445 Y86.204 E23.84921
G1 X71.944 Y85.215 E23.98080
G1 X72.594 Y84.042 E24.14002
G1 X73.168 Y83.095 E24.27158
G1 X73.643 Y82.363 E24.37521
G1 X74.412 Y81.265 E24.53442
G1 X74.937 Y80.568 E24.63805
G1 X75.631 Y79.705 E24.76957
G1 X76.511 Y78.693 E24.92884
G1 X77.106 Y78.055 E25.03248
G1 X77.843 Y77.311 E25.15683
G1 E23.65683 F1800.00000
G92 E0
G1 X115.195 Y114.660 F6000.000
G1 E1.50000 F1800.00000
G1 X114.660 Y115.195 E1.58983 F540.000
G1 X113.580 Y116.168 E1.76256
G1 X112.992 Y116.644 E1.85240
G1 X111.815 Y117.499 E2.02512
G1 X111.181 Y117.911 E2.11497
G1 X109.921 Y118.638 E2.28769
G1 X109.247 Y118.982 E2.37753
G1 X107.910 Y119.577 E2.55141
G1 X106.534 Y120.078 E2.72529
G1 X105.811 Y120.299 E2.81512
G1 X104.390 Y120.653 E2.98900
G1 X102.948 Y120.908 E3.16289
G1 X102.207 Y120.999 E3.25157
G1 X101.463 Y121.064 E3.34025
G1 X100.000 Y121.115 E3.51413
G1 X98.537 Y121.064 E3.68802
G1 X97.793 Y120.999 E3.77670
G1 X97.052 Y120.908 E3.86538
G1 X95.610 Y120.653 E4.03926
G1 X94.189 Y120.299 E4.21315
G1 X93.466 Y120.078 E4.30298
G1 X92.090 Y119.577 E4.47686
G1 X90.753 Y118.982 E4.65074
G1 X90.079 Y118.638 E4.74058
G1 X88.819 Y117.911 E4.91330
G1 X88.185 Y117.499 E5.00315
G1 X87.008 Y116.644 E5.17587
G1 X86.428 Y116.175 E5.26455
G1 X85.868 Y115.687 E5.35272
G1 X85.133 Y114.989 E5.47317
G1 X84.314 Y114.134 E5.61375
G1 X83.825 Y113.572 E5.70217
G1 X83.356 Y112.992 E5.79085
G1 X82.501 Y111.815 E5.96357
G1 X82.089 Y111.181 E6.05342
G1 X81.362 Y109.921 E6.22614
G1 X81.018 Y109.247 E6.31598
G1 X80.423 Y107.910 E6.48986
G1 X79.922 Y106.534 E6.66374
G1 X79.701 Y105.811 E6.75357
G1 X79.347 Y104.390 E6.92745
G1 X79.092 Y102.948 E7.10134
G1 X79.001 Y102.207 E7.19002
G1 X78.936 Y101.463 E7.27870
G1 X78.885 Y100.000 E7.45258
G1 X78.936 Y98.537 E7.62647
G1 X79.001 Y97.793 E7.71515
G1 X79.092 Y97.052 E7.80382
G1 X79.347 Y95.610 E7.97772
G1 X79.701 Y94.189 E8.15160
G1 X79.922 Y93.466 E8.24143
G1 X80.423 Y92.090 E8.41531
G1 X81.018 Y90.753 E8.58919
G1 X81.362 Y90.079 E8.67903
G1 X82.089 Y88.819 E8.85175
G1 X82.501 Y88.185 E8.94160
G1 X83.356 Y87.008 E9.11432
G1 X83.832 Y86.420 E9.20416
G1 X84.805 Y85.340 E9.37689
G1 X85.340 Y84.805 E9.46672
G1 X86.420 Y83.832 E9.63945
G1 X87.008 Y83.356 E9.72929
G1 X88.185 Y82.501 E9.90201
G1 X88.819 Y82.089 E9.99185
G1 X90.087 Y81.357 E10.16574
G1 X91.412 Y80.711 E10.34076
G1 X92.769 Y80.162 E10.51465
G1 X93.475 Y79.919 E10.60334
G1 X94.189 Y79.701 E10.69201
G1 X95.610 Y79.347 E10.86589
G1 X97.052 Y79.092 E11.03978
G1 X97.793 Y79.001 E11.12846
G1 X98.535 Y78.936 E11.21687
G1 X99.717 Y78.890 E11.35746
G1 X100.732 Y78.898 E11.47790
G1 X101.483 Y78.938 E11.56722
G1 X102.929 Y79.090 E11.73995
G1 X103.666 Y79.206 E11.82863
G1 X104.399 Y79.349 E11.91732
G1 X105.820 Y79.703 E12.09120
G1 X107.212 Y80.155 E12.26507
G1 X107.919 Y80.427 E12.35492
G1 X109.247 Y81.018 E12.52764
G1 X109.921 Y81.362 E12.61748
G1 X111.181 Y82.089 E12.79020
G1 X111.815 Y82.501 E12.88005
G1 X112.992 Y83.356 E13.05277
G1 X113.580 Y83.832 E13.14261
G1 X114.660 Y84.805 E13.31534
G1 X115.195 Y85.340 E13.40517
G1 X116.168 Y86.420 E13.57790
G1 X116.644 Y87.008 E13.66774
G1 X117.499 Y88.185 E13.84046
G1 X117.911 Y88.819 E13.93030
G1 X118.638 Y90.079 E14.10303
G1 X118.982 Y90.753 E14.19287
G1 X119.577 Y92.090 E14.36675
G1 X120.078 Y93.466 E14.54062
G1 X120.299 Y94.189 E14.63046
G1 X120.653 Y95.610 E14.80434
G1 X120.908 Y97.052 E14.97823
G1 X120.999 Y97.793 E15.06691
G1 X121.064 Y98.537 E15.15559
G1 X121.115 Y100.000 E15.32947
G1 X121.064 Y101.463 E15.50335
G1 X120.999 Y102.207 E15.59203
G1 X120.908 Y102.948 E15.68071
G1 X120.653 Y104.390 E15.85460
G1 X120.299 Y105.811 E16.02848
G1 X120.078 Y106.534 E16.11832
G1 X119.577 Y107.910 E16.29219
G1 X118.982 Y109.247 E16.46607
G1 X118.638 Y109.921 E16.55591
G1 X117.911 Y111.181 E16.72864
G1 X117.499 Y111.815 E16.81848
G1 X116.644 Y112.992 E16.99120
G1 X116.168 Y113.580 E17.08104
G1 X115.235 Y114.616 E17.24664
G1 X114.677 Y114.169 F6000.000
G1 X114.169 Y114.677 E17.33204 F378.000
G1 X113.116 Y115.625 E17.50032
G1 X112.557 Y116.078 E17.58572
G1 X111.411 Y116.911 E17.75400
G1 X110.807 Y117.302 E17.83940
G1 X109.580 Y118.011 E18.00768
G1 X108.940 Y118.337 E18.09308
G1 X107.642 Y118.915 E18.26178
G1 X106.307 Y119.401 E18.43047
G1 X105.620 Y119.611 E18.51587
G1 X104.241 Y119.954 E18.68457
G1 X102.843 Y120.201 E18.85327
G1 X102.132 Y120.288 E18.93825
G1 X101.420 Y120.351 E19.02323
G1 X100.000 Y120.400 E19.19193
G1 X98.580 Y120.351 E19.36062
G1 X97.868 Y120.288 E19.44561
G1 X97.157 Y120.201 E19.53059
G1 X95.759 Y119.955 E19.69928
G1 X94.380 Y119.611 E19.86798
G1 X93.693 Y119.401 E19.95338
G1 X92.358 Y118.915 E20.12207
G1 X91.060 Y118.337 E20.29077
G1 X90.420 Y118.011 E20.37617
G1 X89.193 Y117.302 E20.54445
G1 X88.589 Y116.911 E20.62985
G1 X87.443 Y116.078 E20.79813
G1 X86.887 Y115.627 E20.88312
G1 X86.348 Y115.159 E20.96791
G1 X85.637 Y114.483 E21.08448
G1 X84.842 Y113.652 E21.22104
G1 X84.373 Y113.113 E21.30592
G1 X83.922 Y112.557 E21.39091
G1 X83.089 Y111.411 E21.55919
G1 X82.698 Y110.807 E21.64459
G1 X81.989 Y109.580 E21.81287
G1 X81.663 Y108.940 E21.89827
G1 X81.085 Y107.642 E22.06696
G1 X80.599 Y106.307 E22.23566
G1 X80.389 Y105.620 E22.32105
G1 X80.045 Y104.241 E22.48975
G1 X79.799 Y102.843 E22.65845
G1 X79.712 Y102.132 E22.74343
G1 X79.649 Y101.420 E22.82841
G1 X79.600 Y100.000 E22.99711
G1 X79.649 Y98.580 E23.16581
G1 X79.712 Y97.868 E23.25079
G1 X79.799 Y97.157 E23.33577
G1 X80.046 Y95.759 E23.50447
G1 X80.389 Y94.380 E23.67317
G1 X80.599 Y93.693 E23.75857
G1 X81.085 Y92.358 E23.92726
G1 X81.663 Y91.060 E24.09596
G1 X81.989 Y90.420 E24.18135
G1 X82.698 Y89.193 E24.34964
G1 X83.089 Y88.589 E24.43504
G1 X83.922 Y87.443 E24.60332
G1 X84.375 Y86.884 E24.68872
G1 X85.323 Y85.831 E24.85700
G1 X85.831 Y85.323 E24.94239
G1 X86.884 Y84.375 E25.11068
G1 X87.443 Y83.922 E25.19608
G1 X88.589 Y83.089 E25.36436
G1 X89.193 Y82.698 E25.44976
G1 X90.423 Y81.988 E25.61846
G1 X91.702 Y81.363 E25.78756
G1 X93.019 Y80.831 E25.95626
G1 X93.696 Y80.598 E26.04124
G1 X94.380 Y80.389 E26.12622
G1 X95.759 Y80.046 E26.29492
G1 X97.157 Y79.799 E26.46362
G1 X97.868 Y79.712 E26.54860
G1 X98.580 Y79.649 E26.63349
G1 X99.729 Y79.605 E26.77004
G1 X100.710 Y79.612 E26.88661
G1 X101.427 Y79.650 E26.97182
G1 X102.836 Y79.798 E27.14011
G1 X103.542 Y79.910 E27.22509
G1 X104.245 Y80.046 E27.31007
G1 X105.623 Y80.390 E27.47877
G1 X106.974 Y80.829 E27.64746
G1 X107.645 Y81.087 E27.73286
G1 X108.940 Y81.663 E27.90114
G1 X109.580 Y81.989 E27.98654
G1 X110.807 Y82.698 E28.15482
G1 X111.411 Y83.089 E28.24022
G1 X112.557 Y83.922 E28.40850
G1 X113.116 Y84.375 E28.49390
G1 X114.169 Y85.323 E28.66219
G1 X114.677 Y85.831 E28.74758
G1 X115.625 Y86.884 E28.91586
G1 X116.078 Y87.443 E29.00126
G1 X116.911 Y88.589 E29.16954
G1 X117.302 Y89.193 E29.25494
G1 X118.011 Y90.420 E29.42323
G1 X118.337 Y91.060 E29.50862
G1 X118.915 Y92.358 E29.67732
G1 X119.401 Y93.693 E29.84601
G1 X119.611 Y94.380 E29.93141
G1 X119.955 Y95.759 E30.10011
G1 X120.201 Y97.157 E30.26881
G1 X120.288 Y97.868 E30.35379
G1 X120.351 Y98.580 E30.43877
G1 X120.400 Y100.000 E30.60747
G1 X120.351 Y101.420 E30.77617
G1 X120.288 Y102.132 E30.86115
G1 X120.201 Y102.843 E30.94613
G1 X119.954 Y104.241 E31.11483
G1 X119.611 Y105.620 E31.28353
G1 X119.401 Y106.307 E31.36892
G1 X118.915 Y107.642 E31.53762
G1 X118.337 Y108.940 E31.70631
G1 X118.011 Y109.580 E31.79171
G1 X117.302 Y110.807 E31.95999
G1 X116.911 Y111.411 E32.04539
G1 X116.078 Y112.557 E32.21367
G1 X115.625 Y113.116 E32.29907
G1 X114.717 Y114.124 E32.46023
G1 X114.787 Y114.553 F6000.000
G1 X117.178 Y116.596 F6000.000
G1 X116.592 Y117.182 E32.55859 F540.000
G1 X115.983 Y117.750 E32.65760
G1 X115.353 Y118.297 E32.75663
G1 X114.705 Y118.822 E32.85565
G1 X114.040 Y119.324 E32.95466
G1 X113.357 Y119.802 E33.05368
G1 X112.657 Y120.256 E33.15270
G1 X111.943 Y120.686 E33.25171
G1 X111.214 Y121.090 E33.35074
G1 X110.471 Y121.468 E33.44975
G1 X109.715 Y121.821 E33.54876
G1 X108.948 Y122.146 E33.64779
G1 X108.169 Y122.445 E33.74680
G1 X107.381 Y122.717 E33.84582
G1 X106.584 Y122.960 E33.94484
G1 X105.778 Y123.176 E34.04386
G1 X104.966 Y123.364 E34.14287
G1 X104.148 Y123.523 E34.24189
G1 X103.324 Y123.653 E34.34090
G1 X102.497 Y123.755 E34.43992
G1 X101.666 Y123.827 E34.53895
G1 X100.834 Y123.871 E34.63796
G1 X100.000 Y123.886 E34.73698
G1 X99.166 Y123.871 E34.83599
G1 X98.334 Y123.827 E34.93501
G1 X97.503 Y123.755 E35.03403
G1 X96.676 Y123.653 E35.13305
G1 X95.852 Y123.523 E35.23206
G1 X95.034 Y123.364 E35.33108
G1 X94.222 Y123.176 E35.43010
G1 X93.416 Y122.960 E35.52912
G1 X92.619 Y122.717 E35.62814
G1 X91.831 Y122.445 E35.72715
G1 X91.052 Y122.146 E35.82617
G1 X90.285 Y121.821 E35.92519
G1 X89.529 Y121.468 E36.02421
G1 X88.786 Y121.090 E36.12322
G1 X88.057 Y120.686 E36.22224
G1 X87.343 Y120.256 E36.32126
G1 X86.643 Y119.802 E36.42027
G1 X85.960 Y119.324 E36.51929
G1 X85.295 Y118.822 E36.61831
G1 X84.647 Y118.297 E36.71733
G1 X84.023 Y117.755 E36.81548
G1 X83.048 Y116.822 E36.97580
G1 X82.246 Y115.979 E37.11400
G1 X81.703 Y115.353 E37.21237
G1 X81.178 Y114.705 E37.31139
G1 X80.676 Y114.040 E37.41040
G1 X80.198 Y113.357 E37.50943
G1 X79.744 Y112.657 E37.60844
G1 X79.314 Y111.943 E37.70746
G1 X78.910 Y111.214 E37.80648
G1 X78.532 Y110.471 E37.90549
G1 X78.179 Y109.715 E38.00451
G1 X77.854 Y108.948 E38.10353
G1 X77.555 Y108.169 E38.20254
G1 X77.283 Y107.381 E38.30156
G1 X77.040 Y106.584 E38.40058
G1 X76.824 Y105.778 E38.49960
G1 X76.636 Y104.966 E38.59861
G1 X76.477 Y104.148 E38.69763
G1 X76.347 Y103.324 E38.79664
G1 X76.245 Y102.497 E38.89567
G1 X76.173 Y101.666 E38.99469
G1 X76.129 Y100.834 E39.09370
G1 X76.114 Y100.000 E39.19272
G1 X76.129 Y99.166 E39.29174
G1 X76.173 Y98.334 E39.39075
G1 X76.245 Y97.503 E39.48977
G1 X76.347 Y96.676 E39.58879
G1 X76.477 Y95.852 E39.68781
G1 X76.636 Y95.034 E39.78682
G1 X76.824 Y94.222 E39.88584
G1 X77.040 Y93.416 E39.98486
G1 X77.283 Y92.619 E40.08388
G1 X77.555 Y91.831 E40.18290
G1 X77.854 Y91.052 E40.28191
G1 X78.179 Y90.285 E40.38093
G1 X78.532 Y89.529 E40.47995
G1 X78.910 Y88.786 E40.57896
G1 X79.314 Y88.057 E40.67798
G1 X79.744 Y87.343 E40.77700
G1 X80.198 Y86.643 E40.87601
G1 X80.676 Y85.960 E40.97504
G1 X81.178 Y85.295 E41.07405
G1 X81.703 Y84.647 E41.17307
